X:39
T: Texas Blue Bonnet
C: Bill Monroe - Arr. John Baldry
S: From "Bluegrass Memories" CD
S: MandoZine TablEdit Archives
Z: TablEdited by Mike Stangeland for MandoZine
L: 1/8
Q: 520
M: 4/4
K: C
 z6 Ac |: "C"c2 cc cd cd | "Bb"_B_B _B_B "F"Ac cA | "C"GG GG EC CB, | "C7"_B,2 _B,_B, _B,_B, _B,D |
 "F"FF FF zF FA | "G"cd cd cd cA | "C"G2 GG GG FD | Ec2c cc cA | c2 cc cd cd | "Bb"_B_B _B_B "F"Ac cA |
 "C"GG GG EC CB, | "C7"_B,2 _B,_B, _B,_B, _B,D | "F"F2 FF FF FA | "G"Ac cA eA ^dA | "C"c2 cc cc cc |
 c2 cc cc cA | "F"FF FF FF FA | cc cd cc cA | "C"cc cd cG GE | C2 [EC][EC] [EC][EC] CE |
 "F"F2 FF FF FA | cA cd cA GD | "G"G,B, DG GB Bg | "G"g2 a2 e2 d2 | "C"c2 c2 cd cd |
 "Bb"_B_B _B_B "F"Ac cA | "C"G2 GG EC C2 | "C7"_B,2 _B,_B, _B,_B, _B,D |1 F2 FF FF FA | "G"Ac cA eA ^dA |
 "C"c2 cc cc cc | c6 Ac :|2 c2 cc cc c2 | "G"G,B, DG GA G[DG,] | "C"[cEC][cEC] [cEC][cEC] [ADG,][cEC] [cEC][cEC] |
 [ADG,][cEC] [cEC][cEC] [ADG,][cEC] z2 |
